_site/images/resources/source-code.svg

<svg height="90" viewBox="0 0 90 90" width="90" xmlns="http://www.w3.org/2000/svg"><g fill="none" fill-rule="evenodd"><rect fill="#127d7a" height="90" rx="9" width="90"/><g fill="#fff" fill-rule="nonzero"><path d="m77.7 22.7291667c-.003802-3.1625609-2.5759389-5.7253784-5.75-5.7291667h-52.9c-3.1740611.0037883-5.746198 2.5666058-5.75 5.7291667v42.3958333h-2.3v1.1458333c.003802 3.1625609 2.5759389 5.7253784 5.75 5.7291667h57.5c3.1740611-.0037883 5.746198-2.5666058 5.75-5.7291667v-1.1458333h-2.3zm-62.1 0c0-1.8984789 1.5446176-3.4375 3.45-3.4375h52.9c1.9053824 0 3.45 1.5390211 3.45 3.4375v42.3958333h-59.8zm58.65 46.9791666h-57.5c-1.4616371-.0017767-2.7641934-.9193002-3.25335-2.2916666h64.0067c-.4891566 1.3723664-1.7917129 2.2898899-3.25335 2.2916666z"/><path d="m17.969697 62.9493671h55.060606v-38.9873418h-55.060606zm2.2941919-36.6939687h50.4722222v34.4005956h-50.4722222z"/><path d="m45.4999733 22.5695666c.2781207.0028384.5456732-.1069629.7423444-.3046517.1966712-.1976889.3059072-.4666259.3030834-.7461858-.0016517-.1373205-.0300655-.2729841-.0836342-.3993182-.0505183-.1286029-.1250365-.2463088-.2195398-.3467763-.4192373-.3888292-1.0652703-.3888292-1.4845076 0-.0945033.1004675-.1690216.2181734-.2195398.3467763-.0535688.1263341-.0819825.2619977-.0836342.3993182.0035403.2782905.1118732.5448918.303174.7460946.1991061.1939292.4650123.3031008.7422538.3047429z"/><path d="m27.5816454 28.835443-4.0361909 4.1772152 4.0361909 4.1772152 1.5395667-1.5933591-2.4966241-2.5838561 2.4966241-2.583856z"/><path d="m38.3274455 37.1898734 4.0361909-4.1772152-4.0361909-4.1772152-1.5395667 1.5933592 2.4966241 2.583856-2.4966241 2.5838561z"/><path d="m27.5816454 49.721519-4.0361909 4.1772152 4.0361909 4.1772152 1.5395667-1.5933592-2.4966241-2.583856 2.4966241-2.5838561z"/><path d="m36.7878788 51.3148781 2.4966241 2.5838561-2.4966241 2.583856 1.5395667 1.5933592 4.0361909-4.1772152-4.0361909-4.1772152z"/><path d="m30.515152 32.316456h4.878788v2.088608h-4.878788z"/><path d="m29.2238329 52.5127592 7.2500362.0079129.0025009 2.2980155-7.2500362-.0079129z" transform="matrix(.31652664 -.94858362 .94858362 .31652664 -28.454257 67.84016)"/><path d="m32.606061 39.974684h4.878788v2.088608h-4.878788z"/><path d="m39.575758 39.974684h26.484849v2.088608h-26.484849z"/><path d="m32.606061 44.848101h4.878788v2.088608h-4.878788z"/><path d="m39.575758 44.848101h26.484849v2.088608h-26.484849z"/></g></g></svg>

<?xml version="1.0" encoding="UTF-8"?>
<svg width="90px" height="90px" viewBox="0 0 90 90" version="1.1" xmlns="http://www.w3.org/2000/svg" xmlns:xlink="http://www.w3.org/1999/xlink">
    <!-- Generator: Sketch 52.6 (67491) - http://www.bohemiancoding.com/sketch -->
    <title>Group 25</title>
    <desc>Created with Sketch.</desc>
    <g id="Website" stroke="none" stroke-width="1" fill="none" fill-rule="evenodd">
        <g id="19--Resources" transform="translate(-320.000000, -3778.000000)">
            <g id="Group-6" transform="translate(285.000000, 3756.000000)">
                <g id="Group-25" transform="translate(35.000000, 22.000000)">
                    <rect id="Rectangle" fill="#127D7A" x="0" y="0" width="90" height="90" rx="9"></rect>
                    <path d="M77.7,22.7291667 C77.696198,19.5666058 75.1240611,17.0037883 71.95,17 L19.05,17 C15.8759389,17.0037883 13.303802,19.5666058 13.3,22.7291667 L13.3,65.125 L11,65.125 L11,66.2708333 C11.003802,69.4333942 13.5759389,71.9962117 16.75,72 L74.25,72 C77.4240611,71.9962117 79.996198,69.4333942 80,66.2708333 L80,65.125 L77.7,65.125 L77.7,22.7291667 Z M15.6,22.7291667 C15.6,20.8306878 17.1446176,19.2916667 19.05,19.2916667 L71.95,19.2916667 C73.8553824,19.2916667 75.4,20.8306878 75.4,22.7291667 L75.4,65.125 L15.6,65.125 L15.6,22.7291667 Z M74.25,69.7083333 L16.75,69.7083333 C15.2883629,69.7065566 13.9858066,68.7890331 13.49665,67.4166667 L77.50335,67.4166667 C77.0141934,68.7890331 75.7116371,69.7065566 74.25,69.7083333 Z" id="Shape" fill="#FFFFFF" fill-rule="nonzero"></path>
                    <path d="M17.969697,62.9493671 L73.030303,62.9493671 L73.030303,23.9620253 L17.969697,23.9620253 L17.969697,62.9493671 Z M20.2638889,26.2553984 L70.7361111,26.2553984 L70.7361111,60.655994 L20.2638889,60.655994 L20.2638889,26.2553984 Z" id="Shape" fill="#FFFFFF" fill-rule="nonzero"></path>
                    <path d="M45.4999733,22.5695666 C45.778094,22.572405 46.0456465,22.4626037 46.2423177,22.2649149 C46.4389889,22.067226 46.5482249,21.798289 46.5454011,21.5187291 C46.5437494,21.3814086 46.5153356,21.245745 46.4617669,21.1194109 C46.4112486,20.990808 46.3367304,20.8731021 46.2422271,20.7726346 C45.8229898,20.3838054 45.1769568,20.3838054 44.7577195,20.7726346 C44.6632162,20.8731021 44.5886979,20.990808 44.5381797,21.1194109 C44.4846109,21.245745 44.4561972,21.3814086 44.4545455,21.5187291 C44.4580858,21.7970196 44.5664187,22.0636209 44.7577195,22.2648237 C44.9568256,22.4587529 45.2227318,22.5679245 45.4999733,22.5695666 Z" id="Path" fill="#FFFFFF" fill-rule="nonzero"></path>
                    <polygon id="Path" fill="#FFFFFF" fill-rule="nonzero" points="27.5816454 28.835443 23.5454545 33.0126582 27.5816454 37.1898734 29.1212121 35.5965143 26.624588 33.0126582 29.1212121 30.4288022"></polygon>
                    <polygon id="Path" fill="#FFFFFF" fill-rule="nonzero" points="38.3274455 37.1898734 42.3636364 33.0126582 38.3274455 28.835443 36.7878788 30.4288022 39.2845029 33.0126582 36.7878788 35.5965143"></polygon>
                    <polygon id="Path" fill="#FFFFFF" fill-rule="nonzero" points="27.5816454 49.721519 23.5454545 53.8987342 27.5816454 58.0759494 29.1212121 56.4825902 26.624588 53.8987342 29.1212121 51.3148781"></polygon>
                    <polygon id="Path" fill="#FFFFFF" fill-rule="nonzero" points="36.7878788 51.3148781 39.2845029 53.8987342 36.7878788 56.4825902 38.3274455 58.0759494 42.3636364 53.8987342 38.3274455 49.721519"></polygon>
                    <rect id="Rectangle" fill="#FFFFFF" fill-rule="nonzero" x="30.5151515" y="32.3164557" width="4.87878788" height="2.08860759"></rect>
                    <polygon id="Rectangle" fill="#FFFFFF" fill-rule="nonzero" transform="translate(32.850101, 53.665723) rotate(-71.547000) translate(-32.850101, -53.665723) " points="29.2238329 52.5127592 36.4738691 52.5206721 36.47637 54.8186876 29.2263338 54.8107747"></polygon>
                    <rect id="Rectangle" fill="#FFFFFF" fill-rule="nonzero" x="32.6060606" y="39.9746835" width="4.87878788" height="2.08860759"></rect>
                    <rect id="Rectangle" fill="#FFFFFF" fill-rule="nonzero" x="39.5757576" y="39.9746835" width="26.4848485" height="2.08860759"></rect>
                    <rect id="Rectangle" fill="#FFFFFF" fill-rule="nonzero" x="32.6060606" y="44.8481013" width="4.87878788" height="2.08860759"></rect>
                    <rect id="Rectangle" fill="#FFFFFF" fill-rule="nonzero" x="39.5757576" y="44.8481013" width="26.4848485" height="2.08860759"></rect>
                </g>
            </g>
        </g>
    </g>
</svg>
